SVG_Azure_All/Chef.svg

<?xml version="1.0" encoding="UTF-8" standalone="no"?>
<!-- Generated by Microsoft Visio, SVG Export Chef.svg Page-1 -->

<svg
   xmlns:dc="http://purl.org/dc/elements/1.1/"
   xmlns:cc="http://creativecommons.org/ns#"
   xmlns:rdf="http://www.w3.org/1999/02/22-rdf-syntax-ns#"
   xmlns:svg="http://www.w3.org/2000/svg"
   xmlns="http://www.w3.org/2000/svg"
   xmlns:sodipodi="http://sodipodi.sourceforge.net/DTD/sodipodi-0.dtd"
   xmlns:inkscape="http://www.inkscape.org/namespaces/inkscape"
   width="0.78743136in"
   height="0.78735912in"
   viewBox="0 0 56.695056 56.689997"
   xml:space="preserve"
   class="st5"
   version="1.1"
   id="svg94"
   sodipodi:docname="Chef.svg"
   style="font-size:12px;overflow:visible;color-interpolation-filters:sRGB;fill:none;fill-rule:evenodd;stroke-linecap:square;stroke-miterlimit:3"
   inkscape:version="0.92.5 (2060ec1f9f, 2020-04-08)"><metadata
   id="metadata100"><rdf:RDF><cc:Work
       rdf:about=""><dc:format>image/svg+xml</dc:format><dc:type
         rdf:resource="http://purl.org/dc/dcmitype/StillImage" /></cc:Work></rdf:RDF></metadata><defs
   id="defs98" /><sodipodi:namedview
   pagecolor="#ffffff"
   bordercolor="#666666"
   borderopacity="1"
   objecttolerance="10"
   gridtolerance="10"
   guidetolerance="10"
   inkscape:pageopacity="0"
   inkscape:pageshadow="2"
   inkscape:window-width="640"
   inkscape:window-height="480"
   id="namedview96"
   showgrid="false"
   inkscape:zoom="1.8365233"
   inkscape:cx="37.795184"
   inkscape:cy="18.900351"
   inkscape:window-x="0"
   inkscape:window-y="0"
   inkscape:window-maximized="0"
   inkscape:current-layer="svg94" />
	<style
   type="text/css"
   id="style2">
	<![CDATA[
		.st1 {fill:#435363;stroke:none;stroke-linecap:butt;stroke-width:0.75}
		.st2 {fill:#f38b00;stroke:none;stroke-linecap:butt;stroke-width:0.75}
		.st3 {fill:#f38b00;stroke:none;stroke-width:0.999999}
		.st4 {fill:none;stroke:none;stroke-linecap:butt;stroke-width:0.75}
		.st5 {fill:none;fill-rule:evenodd;font-size:12px;overflow:visible;stroke-linecap:square;stroke-miterlimit:3}
	]]>
	</style>

	<g
   id="g92"
   transform="translate(-5.6693772,-5.6743)">
		<title
   id="title4">Page-1</title>
		<g
   id="group6749-1"
   transform="translate(5.66929,-34.0157)">
			<title
   id="title6">Chef</title>
			<g
   id="group6750-2">
				<title
   id="title8">Page-1</title>
				<g
   id="group6751-3">
					<title
   id="title10">chef-2</title>
					<g
   id="group6752-4"
   transform="translate(9.20634,-10.783)">
						<title
   id="title12">Sheet.6752</title>
						<g
   id="shape6753-5">
							<title
   id="title14">Sheet.6753</title>
							<path
   d="m 18.25,91.58 c -7.31,0 -13.26,-5.73 -13.26,-12.76 0,-7.05 5.95,-12.77 13.26,-12.77 6.05,0 11.15,3.89 12.74,9.22 h 5.13 C 34.42,67.27 27.05,61.24 18.25,61.24 8.19,61.24 0,69.12 0,78.82 c 0,9.68 8.19,17.56 18.25,17.56 8.8,0 16.17,-6.03 17.87,-14.03 h -5.13 c -1.59,5.33 -6.69,9.23 -12.74,9.23 z"
   class="st1"
   id="path16"
   inkscape:connector-curvature="0"
   style="fill:#435363;stroke:none;stroke-width:0.75;stroke-linecap:butt" />
						</g>
					</g>
					<g
   id="group6754-7"
   transform="translate(18.5141,-16.1685)">
						<title
   id="title20">Sheet.6754</title>
						<g
   id="shape6755-8">
							<title
   id="title22">Sheet.6755</title>
							<path
   d="m 0,92.8 c 2.3,2.21 5.45,3.58 8.94,3.58 v -5.09 c -2.03,0 -3.87,-0.81 -5.21,-2.08 z"
   class="st1"
   id="path24"
   inkscape:connector-curvature="0"
   style="fill:#435363;stroke:none;stroke-width:0.75;stroke-linecap:butt" />
						</g>
					</g>
					<g
   id="group6756-10"
   transform="translate(30.1275,-31.8885)">
						<title
   id="title28">Sheet.6756</title>
						<g
   id="shape6757-11">
							<title
   id="title30">Sheet.6757</title>
							<path
   d="M 1.92,88.58 0,93.32 c 1.57,0.59 2.88,1.66 3.7,3.06 H 9.43 C 8.3,92.8 5.51,89.92 1.92,88.58 Z"
   class="st1"
   id="path32"
   inkscape:connector-curvature="0"
   style="fill:#435363;stroke:none;stroke-width:0.75;stroke-linecap:butt" />
						</g>
					</g>
					<g
   id="group6758-13">
						<title
   id="title36">Sheet.6758</title>
						<g
   id="shape6759-14">
							<title
   id="title38">Sheet.6759</title>
							<path
   d="m 27.46,91.56 c -6.75,0 -12.86,-2.64 -17.29,-6.89 l -3.54,3.39 c 5.34,5.14 12.69,8.32 20.83,8.32 15.03,0 27.42,-10.82 29.23,-24.8 H 51.65 C 49.87,82.88 39.7,91.56 27.46,91.56 Z m 0,-47.07 c 5.48,0 10.54,1.74 14.62,4.68 l 3,-3.86 C 40.17,41.78 34.06,39.69 27.46,39.69 14.96,39.69 4.28,47.17 0,57.74 l 4.66,1.75 c 3.56,-8.78 12.44,-15 22.8,-15 z"
   class="st2"
   id="path40"
   inkscape:connector-curvature="0"
   style="fill:#f38b00;stroke:none;stroke-width:0.75;stroke-linecap:butt" />
						</g>
					</g>
					<g
   id="group6760-16"
   transform="translate(48.2052,-31.8874)">
						<title
   id="title44">Sheet.6760</title>
						<g
   id="shape6761-17">
							<title
   id="title46">Sheet.6761</title>
							<path
   d="M 3.45,96.38 H 8.49 C 7.94,92.2 6.46,88.32 4.25,84.91 L 0,87.45 c 1.73,2.67 2.93,5.69 3.45,8.93 z"
   class="st1"
   id="path48"
   inkscape:connector-curvature="0"
   style="fill:#435363;stroke:none;stroke-width:0.75;stroke-linecap:butt" />
						</g>
					</g>
					<g
   id="group6762-19"
   transform="translate(34.2984,-31.8873)">
						<title
   id="title52">Sheet.6762</title>
						<g
   id="shape6763-20">
							<title
   id="title54">Sheet.6763</title>
							<path
   d="m 11.67,96.38 h 5.05 C 15.4,88.21 9.59,81.45 1.81,78.53 L 0,83 c 5.92,2.23 10.41,7.24 11.67,13.38 z"
   class="st3"
   id="path56"
   inkscape:connector-curvature="0"
   style="fill:#f38b00;stroke:none;stroke-width:0.99999899" />
						</g>
						<g
   id="shape6764-22">
							<title
   id="title59">Sheet.6764</title>
							<path
   d="m 11.67,96.38 h 5.05 C 15.4,88.21 9.59,81.45 1.81,78.53 L 0,83 c 5.92,2.23 10.41,7.24 11.67,13.38 z"
   class="st4"
   id="path61"
   inkscape:connector-curvature="0"
   style="fill:none;stroke:none;stroke-width:0.75;stroke-linecap:butt" />
						</g>
					</g>
					<g
   id="group6765-24"
   transform="translate(5.23325,-34.9263)">
						<title
   id="title65">Sheet.6765</title>
						<g
   id="shape6766-25">
							<title
   id="title67">Sheet.6766</title>
							<path
   d="M 22.22,84.8 V 80.02 C 12.13,80.02 3.46,86.08 0,94.64 l 4.65,1.74 C 7.39,89.61 14.24,84.8 22.22,84.8 Z"
   class="st1"
   id="path69"
   inkscape:connector-curvature="0"
   style="fill:#435363;stroke:none;stroke-width:0.75;stroke-linecap:butt" />
						</g>
					</g>
					<g
   id="group6767-27"
   transform="translate(3.60984,-7.04507)">
						<title
   id="title73">Sheet.6767</title>
						<g
   id="shape6768-28">
							<title
   id="title75">Sheet.6768</title>
							<path
   d="M 4.98,75.08 H 0 c 0,9.63 6.22,17.9 14.99,21.3 l 1.86,-4.46 C 9.9,89.24 4.98,82.7 4.98,75.08 Z"
   class="st2"
   id="path77"
   inkscape:connector-curvature="0"
   style="fill:#f38b00;stroke:none;stroke-width:0.75;stroke-linecap:butt" />
						</g>
					</g>
					<g
   id="group6769-30"
   transform="translate(27.4588,-5.39855)">
						<title
   id="title81">Sheet.6769</title>
						<g
   id="shape6770-31">
							<title
   id="title83">Sheet.6770</title>
							<path
   d="m 0,91.58 v 4.8 c 11.9,0 21.79,-8.44 23.57,-19.41 H 18.5 C 16.79,85.29 9.15,91.58 0,91.58 Z"
   class="st1"
   id="path85"
   inkscape:connector-curvature="0"
   style="fill:#435363;stroke:none;stroke-width:0.75;stroke-linecap:butt" />
						</g>
					</g>
				</g>
			</g>
		</g>
	</g>
</svg>

<?xml version="1.0" encoding="UTF-8" standalone="no"?>
<!DOCTYPE svg PUBLIC "-//W3C//DTD SVG 1.1//EN" "http://www.w3.org/Graphics/SVG/1.1/DTD/svg11.dtd">
<!-- Generated by Microsoft Visio, SVG Export Chef.svg Page-1 -->
<svg xmlns="http://www.w3.org/2000/svg" xmlns:xlink="http://www.w3.org/1999/xlink" xmlns:ev="http://www.w3.org/2001/xml-events"
		width="0.944882in" height="1.33858in" viewBox="0 0 68.0315 96.378" xml:space="preserve" color-interpolation-filters="sRGB"
		class="st5">
	<style type="text/css">
	<![CDATA[
		.st1 {fill:#435363;stroke:none;stroke-linecap:butt;stroke-width:0.75}
		.st2 {fill:#f38b00;stroke:none;stroke-linecap:butt;stroke-width:0.75}
		.st3 {fill:#f38b00;stroke:none;stroke-width:0.999999}
		.st4 {fill:none;stroke:none;stroke-linecap:butt;stroke-width:0.75}
		.st5 {fill:none;fill-rule:evenodd;font-size:12px;overflow:visible;stroke-linecap:square;stroke-miterlimit:3}
	]]>
	</style>

	<g>
		<title>Page-1</title>
		<g id="group6581-1" transform="translate(5.66929,-34.0157)">
			<title>Chef</title>
			<g id="group6582-2">
				<title>Page-1</title>
				<g id="group6583-3">
					<title>chef-2</title>
					<g id="group6584-4" transform="translate(9.20634,-10.783)">
						<title>Sheet.6584</title>
						<g id="shape6585-5">
							<title>Sheet.6585</title>
							<path d="M18.25 91.58 C10.94 91.58 4.99 85.85 4.99 78.82 C4.99 71.77 10.94 66.05 18.25 66.05 C24.3 66.05
										 29.4 69.94 30.99 75.27 L36.12 75.27 C34.42 67.27 27.05 61.24 18.25 61.24 C8.19 61.24 0 69.12
										 0 78.82 C0 88.5 8.19 96.38 18.25 96.38 C27.05 96.38 34.42 90.35 36.12 82.35 L30.99 82.35
										 C29.4 87.68 24.3 91.58 18.25 91.58 Z" class="st1"/>
						</g>
					</g>
					<g id="group6586-7" transform="translate(18.5141,-16.1685)">
						<title>Sheet.6586</title>
						<g id="shape6587-8">
							<title>Sheet.6587</title>
							<path d="M0 92.8 C2.3 95.01 5.45 96.38 8.94 96.38 L8.94 91.29 C6.91 91.29 5.07 90.48 3.73 89.21 L0 92.8
										 Z" class="st1"/>
						</g>
					</g>
					<g id="group6588-10" transform="translate(30.1275,-31.8885)">
						<title>Sheet.6588</title>
						<g id="shape6589-11">
							<title>Sheet.6589</title>
							<path d="M1.92 88.58 L0 93.32 C1.57 93.91 2.88 94.98 3.7 96.38 L9.43 96.38 C8.3 92.8 5.51 89.92 1.92
										 88.58 Z" class="st1"/>
						</g>
					</g>
					<g id="group6590-13">
						<title>Sheet.6590</title>
						<g id="shape6591-14">
							<title>Sheet.6591</title>
							<path d="M27.46 91.56 C20.71 91.56 14.6 88.92 10.17 84.67 L6.63 88.06 C11.97 93.2 19.32 96.38 27.46 96.38
										 C42.49 96.38 54.88 85.56 56.69 71.58 L51.65 71.58 C49.87 82.88 39.7 91.56 27.46 91.56 ZM27.46
										 44.49 C32.94 44.49 38 46.23 42.08 49.17 L45.08 45.31 C40.17 41.78 34.06 39.69 27.46 39.69
										 C14.96 39.69 4.28 47.17 0 57.74 L4.66 59.49 C8.22 50.71 17.1 44.49 27.46 44.49 Z"
									class="st2"/>
						</g>
					</g>
					<g id="group6592-16" transform="translate(48.2052,-31.8874)">
						<title>Sheet.6592</title>
						<g id="shape6593-17">
							<title>Sheet.6593</title>
							<path d="M3.45 96.38 L8.49 96.38 C7.94 92.2 6.46 88.32 4.25 84.91 L0 87.45 C1.73 90.12 2.93 93.14 3.45
										 96.38 Z" class="st1"/>
						</g>
					</g>
					<g id="group6594-19" transform="translate(34.2984,-31.8873)">
						<title>Sheet.6594</title>
						<g id="shape6595-20">
							<title>Sheet.6595</title>
							<path d="M11.67 96.38 L16.72 96.38 C15.4 88.21 9.59 81.45 1.81 78.53 L0 83 C5.92 85.23 10.41 90.24 11.67
										 96.38 Z" class="st3"/>
						</g>
						<g id="shape6596-22">
							<title>Sheet.6596</title>
							<path d="M11.67 96.38 L16.72 96.38 C15.4 88.21 9.59 81.45 1.81 78.53 L0 83 C5.92 85.23 10.41 90.24 11.67
										 96.38 Z" class="st4"/>
						</g>
					</g>
					<g id="group6597-24" transform="translate(5.23325,-34.9263)">
						<title>Sheet.6597</title>
						<g id="shape6598-25">
							<title>Sheet.6598</title>
							<path d="M22.22 84.8 L22.22 80.02 C12.13 80.02 3.46 86.08 0 94.64 L4.65 96.38 C7.39 89.61 14.24 84.8
										 22.22 84.8 Z" class="st1"/>
						</g>
					</g>
					<g id="group6599-27" transform="translate(3.60984,-7.04507)">
						<title>Sheet.6599</title>
						<g id="shape6600-28">
							<title>Sheet.6600</title>
							<path d="M4.98 75.08 L0 75.08 C0 84.71 6.22 92.98 14.99 96.38 L16.85 91.92 C9.9 89.24 4.98 82.7 4.98
										 75.08 Z" class="st2"/>
						</g>
					</g>
					<g id="group6601-30" transform="translate(27.4588,-5.39855)">
						<title>Sheet.6601</title>
						<g id="shape6602-31">
							<title>Sheet.6602</title>
							<path d="M0 91.58 L0 96.38 C11.9 96.38 21.79 87.94 23.57 76.97 L18.5 76.97 C16.79 85.29 9.15 91.58 0
										 91.58 Z" class="st1"/>
						</g>
					</g>
				</g>
			</g>
		</g>
	</g>
</svg>
